X:1
T:大提琴练习曲_Book1_P18_No.25
T:大提琴练习曲_Book1_P18_No.25
L:1/8
Q:1/4=80
M:3/8
K:F
V:1 bass nm="大提琴" snm="Vc."
V:1
 (D,/A,/B,/A,/B,/A,/) | (F,/A,/B,/A,/B,/A,/) | (D,/A,/B,/A,/B,/A,/) | (F,/A,/B,/A,/B,/A,/) | %4
 (E,/A,/B,/A,/B,/A,/) | (G,/A,/B,/A,/B,/A,/) | (F,/A,/B,/A,/B,/A,/) | (E,/A,/B,/A,/B,/A,/) | %8
 (F,/D,/_E,/D,/E,/D,/) | (C/D,/_E,/D,/E,/D,/) | (B,/D,/_E,/D,/E,/D,/) | (A,/D,/_E,/D,/E,/D,/) | %12
 (B,/D,/_E,/D,/E,/D,/) | (D/D,/_E,/D,/E,/D,/) | (C/D,/_E,/D,/E,/D,/) | (B,/D,/_E,/D,/E,/D,/) | %16
 (A,/D,/E,/D,/E,/D,/) | (G,/A,,/B,,/A,,/B,,/A,,/) | (F,/A,,/B,,/A,,/B,,/A,,/) | %19
 (E,/A,,/B,,/A,,/B,,/A,,/) | (D,/A,,/B,,/A,,/B,,/A,,/) | (F,/A,,/B,,/A,,/B,,/A,,/) | %22
 (D,,/A,,/B,,/A,,/B,,/A,,/) | D,,2 z |] %24

